Apricity Icons/22/panel/teamviewer-indicator-away.svg

<svg xmlns="http://www.w3.org/2000/svg" width="22" height="22" version="1.1">
 <defs>
  <style id="current-color-scheme" type="text/css">
   .ColorScheme-Text { color:#dfdfdf; } .ColorScheme-Highlight { color:#4285f4; }
  </style>
 </defs>
 <g>
  <path style="fill:currentColor" class="ColorScheme-Text" d="m 19,11 c -0.0014,0.486109 -0.05073,0.971344 -0.140227,1.449146 L 17.789711,11.379384 15,14.206756 15.792824,14.999579 12,15 l 0,3.928705 c -0.331469,0.0442 -0.665605,0.06889 -1,0.07129 -4.4172959,0 -8.0000001,-3.582236 -8.0000001,-7.999532 C 2.9999999,6.5831714 6.5826942,3.0000991 11,2.9999993 15.417306,2.9999002 19,6.5827042 19,11 Z M 13,8.0000001 13,10 8.9999998,10 8.9986859,8.0009354 6,11 l 2.9999998,3 0,-2 L 13,12 l 0,2 3,-3 z M 17.793,12.792 22,17 17.793,21.207 16.3789,19.793 18.1719,18 13,17.999 l 0,-2 5.1719,10e-4 -1.793,-1.794 z"/>
 </g>
</svg>

<svg xmlns="http://www.w3.org/2000/svg" width="22" height="22"><defs><style id="current-color-scheme" type="text/css"></style></defs><path d="M19 11c-.001.486-.05.971-.14 1.45l-1.07-1.07L15 14.206l.793.793H12v3.929A8.003 8.003 0 0 1 11 19a8 8 0 0 1 0-16c4.417 0 8 3.583 8 8zm-6-3v2H9l-.001-2L6 11l3 3v-2h4v2l3-3zm4.793 4.792L22 17l-4.207 4.207-1.414-1.414L18.172 18 13 17.999v-2l5.172.001-1.793-1.794z" fill="currentColor" color="#dfdfdf"/></svg>
